X:1
T:Occhi della mia vita
T:Occhi della mia vita
T:Claudio Saracini
T:Source : Le terze Musische per cantar e sonar---Venetia---A.Vincenti---1620. Editor : André Vierendeels (11/01/16)
T:Notes : Original clefs : C1, F4 Dedicated to Sig.Gio.Pietro Rapani The original print was damaged (perhaps during WW II), necessitating an editorial addendum in mm. 25-26.
T:©
T:©
T:©
T:©
C:Claudio Saracini
Z:©
%%score 1 2
L:1/8
Q:1/4=120
M:4/4
K:F
V:1 treble nm="Soprano" snm="S"
V:2 bass nm="Basso Continuo" snm="BC"
V:1
 A8- | A4 A4 | E6 FE | A8- | A4 A4 | z4 c4 | c8 | A6 BA | d8- | d4 d4 | e6 AA | A6 E2 | ^F8 | ^F8 | %14
w: Oc-|* chi|del- la mia|vi-|* ta,|oc-|chi|del- la mia|vi-|* ta,|se den- tro'il|cor mi|sta-|te,|
 A2 cc f2 e/d/c/B/ | A/G/F/E/ D/E/F/G/ A/B/c/d/- d2 | f2 _e/d/e/c/ d/c/d/B/ c/B/c/A/ | %17
w: voi pur le fiam- * * * *||m'on- d'ar- * * * * * * * * * * *|
 B/A/B/G/ A/G/A/^F/ G/F/G/E/ A2- | A2 z F F4 | E/F/G/^C/ D/E/F/G/ A/E/F/G/ A/=B/^c/d/ | %20
w: * * * * * * * * * * * * do,|_ o- gn'or|mi- * * * ra- * * * * * * * * * * *|
 e/e/e/e/ e/e/e/e/ d4 :: _e4 dc c2- | cccc c3 B | B4 B3 A | A4 G4 | D4 A4- | A4 A4 | %27
w: * * * * * * * * re.|I- te- ne dun-|* qu'e ra- con- ta- te'ai-|ci dun- qu'e|ra- con-|ta- te'ai-|* ci|
 D/E/F/G/ A/B/c/d/ e/f/- f3 | dddd d4 | d4 B2 BB | B3 c d4 | d8 | z Bcd _eedc | B6 d2 | c8 | B8 | %36
w: dhe _ _ _ _ _ _ _ _ _ _|non me- co res- ta-|te oc- chi pe-|ro chei co-|re,|per voi sol vi- v'e sen- za|voi si|mo-|re,|
 z ABc ddcB | A6 d2 | A8 | G4 z EFG | A6 F2 | EFGF E4- | E8 | D8 :| %44
w: per voi sol vi- v'e sen- za|voi si|mo-|re, e sen- za|voi si|mo- * * * *||re.|
V:2
 D,8 | F,,8 | A,,8 | A,,2 =B,,2 ^C,2 A,,2 | D,C,=B,,A,, A,,4 | F,,8- | F,,8 | D,8 | %8
 D,2 E,2 ^F,2 D,2 | G,2 !courtesy!=F,E, D,4 | ^C,8 | D,4 ^C,4 | D,8 | D,,8 | F,,4 B,,4 | D,8- | %16
 D,2 C,2 G,2 F,2 | G,2 D,2 C,2 A,,2- | A,,2 F,,2 G,,2 A,,2- | A,,8 | A,,4 D,4 :: C,8 | C,6 G,,2 | %23
 G,,6 ^F,,2- | F,,4 =B,,4 | =B,,8 | A,,8 | B,,8 | B,,8 | B,,4 G,,4- | G,,2 C,2 B,,4 | B,,8 | %32
 _E,8- | E,4 D,4 | F,8 | B,,8 | F,,4 B,,4 | D,8 | D,,8 | G,,4 A,,4- | A,,4 A,,4 | A,,8- | A,,8 | %43
 D,8 :| %44

